frontend/public/svg/arrows/arrow-ne.svg

<svg width="110" height="107" viewBox="0 0 110 107" fill="none" xmlns="http://www.w3.org/2000/svg">
<path d="M51.454 61.1811C38.6257 73.8037 25.7914 86.4199 12.9512 99.0294C10.3863 101.538 7.64747 103.879 4.87313 106.157C4.41031 106.529 3.84581 106.754 3.25343 106.801C2.66106 106.847 2.0683 106.715 1.55266 106.419C0.695483 105.977 0.4953 104.334 1.22449 103.334C1.92809 102.368 2.55616 101.333 3.34573 100.442C8.38378 94.7561 13.2841 88.9343 18.5545 83.471C29.384 72.2476 40.362 61.1673 51.3779 50.129C61.8288 39.6538 72.4227 29.3231 82.911 18.8821C84.5945 17.2065 86.0615 15.3136 87.5914 13.4863C87.6753 13.3476 87.7229 13.1901 87.73 13.0282C87.7371 12.8663 87.7035 12.7051 87.6321 12.5596C87.403 12.2701 86.8936 11.9092 86.6245 11.9886C81.6606 13.4561 76.6482 14.7931 71.7795 16.5396C60.4597 20.603 48.7945 23.3655 37.1196 26.1143C35.2011 26.5652 33.2138 27.0614 31.2782 26.0834C30.9264 25.9055 30.3371 25.5873 30.3594 25.3877C30.3862 24.6235 30.6016 23.8778 30.9868 23.2172C31.4779 22.5945 32.1324 22.1203 32.8771 21.8474C35.4952 20.8629 38.1349 19.925 40.8036 19.0908C59.8729 13.1031 78.9605 7.17565 98.0212 1.16228C105.211 -1.10668 109.843 -0.969494 109.573 10.1147C109.496 13.3091 109.399 16.5206 109.008 19.6861C107.194 34.3697 105.313 49.0443 103.363 63.7099C103.04 65.6715 102.564 67.6049 101.94 69.4923C101.565 70.7564 100.482 71.3123 99.2414 71.4863C97.8762 71.6779 95.6859 70.4545 95.2042 69.4352C94.1344 67.1728 94.0995 64.7627 94.2689 62.3796C94.92 53.2059 95.6538 44.0382 96.3928 34.8718C96.8746 28.8991 97.4312 22.9357 97.9025 16.9643C97.9254 16.669 97.5086 16.2391 97.1942 16.0513C97.042 15.9844 96.8758 15.9554 96.71 15.9668C96.5441 15.9783 96.3835 16.0298 96.2419 16.117C94.4475 17.6922 92.6202 19.2365 90.9439 20.9305C77.7226 34.2914 64.5191 47.67 51.3332 61.0662L51.454 61.1811Z" fill="black"/>
</svg>

<svg xmlns="http://www.w3.org/2000/svg" width="110" height="107" fill="none" viewBox="0 0 110 107"><path fill="#000" d="M51.454 61.181A54944 54944 0 0 1 12.951 99.03c-2.565 2.509-5.304 4.85-8.078 7.128a2.955 2.955 0 0 1-3.32.262c-.858-.442-1.058-2.085-.329-3.085.704-.966 1.332-2.001 2.122-2.892 5.038-5.686 9.938-11.508 15.209-16.971C29.384 72.249 40.362 61.168 51.378 50.13c10.45-10.475 21.045-20.806 31.533-31.247 1.683-1.676 3.15-3.568 4.68-5.396a.97.97 0 0 0 .041-.926c-.229-.29-.738-.65-1.008-.571-4.963 1.467-9.976 2.804-14.844 4.55-11.32 4.064-22.985 6.826-34.66 9.575-1.919.451-3.906.947-5.842-.03-.352-.178-.94-.497-.919-.696a4.6 4.6 0 0 1 .628-2.17 4.3 4.3 0 0 1 1.89-1.37c2.618-.985 5.258-1.923 7.927-2.757C59.873 13.103 78.96 7.176 98.02 1.162c7.19-2.269 11.822-2.131 11.552 8.953-.077 3.194-.174 6.406-.565 9.571a4787 4787 0 0 1-5.645 44.024 38 38 0 0 1-1.423 5.782c-.375 1.264-1.458 1.82-2.699 1.994-1.365.192-3.555-1.032-4.037-2.05-1.07-2.263-1.104-4.673-.935-7.056.651-9.174 1.385-18.342 2.124-27.508.482-5.973 1.038-11.936 1.51-17.908.022-.295-.394-.725-.709-.913a1.03 1.03 0 0 0-.952.066c-1.794 1.575-3.622 3.12-5.298 4.813a21203 21203 0 0 0-39.61 40.136z"/></svg>
